!!!OTL: Altes Tanzlied der Ostfriesen
!!!SCT: A0295
!!!YEM: Copyright 1995, estate of Helmut Schaffrath.
**kern
*ICvox
*Ivox
*M3/4
*k[f#]
*G:
{4dd
=1
4dd
4dd
4dd
=2
4dd
4ee
4ff#
=3
2gg
4ff#
=4
2ee}
{4dd
=5
4.dd
8cc
8b
8a
=6
2g}
{4dd
=7
4dd
4dd
4dd
=8
4dd
4ee
4ff#
=9
2gg
4ff#
=10
2ee}
{4dd
=11
4.dd
8cc
8b
8a
=12
2g
4r}
=13
{4a
4a
4a
=14
4a
4b
4cc
=15
4.dd
8cc
4b
=16
2a}
{4b
=17
4.a
8g
4f#
=18
2g
4b
=19
4.a
8g
4f#
=20
2g}
==
!!!AGN: Romanze, Ballade, Lied
!! Cadovius Mueller, Memoriale linguae Frisicae. 1691. Mitgeth.
!!    im Osterprogramm des K. Gymnasiums zu Aurich 1867 .
!!!ONB: ESAC (Essen Associative Code) Database: ALTDEU
!!!AMT: simple triple
!!!AIN: vox
!!!EED: Helmut Schaffrath
!!!EEV: 1.0
*-
